X:5082
T:Pete's Jig
T:Lilting Banshee, The
O:england
R:Jig
M:6/8
L:1/8
K:D
"Am"EAA EAA|"G"BAB G2A|"Em"Bee "G"Bdd|"Em"BAB "G"GED|
"Am"EAA EAA|"G"BAB G2A|"Em"Bee edB|"G"dBA "Am"A3:|
|:a3 {b}age|"G"eBA G2A|"Em"cee edB|"G"def g3|
"Am"a3 {b}age|"G"eBA G2A|"Em"Bee edB|"G"dBA "Am"A3:|
